Yaru++/mimetypes/16/text-x-bibtex.svg

<svg id="svg15" height="16" width="16" xmlns="http://www.w3.org/2000/svg">
  <g fill="#808080">
    <path id="path11" d="m4.9941406 0c-1.2582.0145-2.1788906-.03060437-2.9316406.38476562-.37637.20766001-.6732306.55938688-.8378906.99804688-.16467.43867-.2246094.9595775-.2246094 1.6171875v10c0 .65761.059899 1.178578.2246094 1.617188.16468.43861.4615306.788523.8378906.996093.75272.41514 1.6735406.371649 2.9316406.386719h.00195 5.0058592.0039c1.25819-.0145 2.178891.0306 2.931641-.384766.37637-.20766.673231-.559387.837891-.998046.1645392-.438671.2246182-.959578.2246182-1.617188v-10c0-.65761-.059899-1.1785775-.224609-1.6171875-.16468-.43861-.461531-.78852375-.837891-.99609375-.75272-.41513-1.673551-.37164875-2.931641-.38671875h-.002-5.0058591zm.0058594 1h5c1.25862.0152 2.089098.059899 2.455078.2617188.18342.1011599.287226.2128562.384766.4726562.09741.25979.160156.673235.160156 1.265625v10c0 .59239-.0626 1.005725-.160156 1.265625-.0976.25991-.201356.371466-.384766.472656-.36596.20192-1.196558.247009-2.455078.261719h-4.9941406-.0058594c-1.25863-.0152-2.0890981-.059899-2.4550781-.261719-.18342-.10116-.2872257-.212856-.3847657-.472656-.09755-.25979-.1601562-.673235-.1601562-1.265625v-10c0-.59239.0625962-1.005725.1601562-1.265625.0976001-.25991.2033088-.3714662.3867188-.4726562.36595-.20191 1.194605-.2470188 2.453125-.2617188z"/>
    <g id="g66" transform="matrix(.36163717649 0 0 .36163717649 -5.41722821815 -88.46524588308)">
      <path id="path44" d="m35.806999 252.33164v1.05833h12.7v-1.05833zm0 3.175v1.05833h12.7v-1.05833zm0 3.175v1.05833h12.7v-1.05833zm0 3.175v1.05833h12.7v-1.05833zm0 3.175v1.05833h12.7v-1.05833z"/>
      <path id="path46" d="m22.489583 267.36665v1.05833h12.7v-1.05833zm0 3.175v1.05833h12.7v-1.05833zm0 3.175v1.05833h12.7v-1.05833zm0 3.175v1.05833h12.7v-1.05833zm0 3.175v1.05833h12.7v-1.05833z"/>
      <path id="path48" d="m-8.1308443 262.0643c2.712041-1.85882 3.9918805-3.71763 3.9918805-5.8507 0-1.82834-1.0055882-3.01676-2.4987343-3.01676-1.1274777 0-1.9807041.79228-1.9807041 1.82834 0 1.09701.822754 1.79787 2.0721212 1.79787.1218895 0 .4266132 0 .4875579-.0305h.091417c.1523619 0 .2133066.0914.2133066.27425 0 1.27984-1.0360606 2.71204-3.0777094 4.14424z" transform="translate(48.392057 19.040767)"/>
      <path id="path52" d="m-8.1308443 262.0643c2.712041-1.85882 3.9918805-3.71763 3.9918805-5.8507 0-1.82834-1.0055882-3.01676-2.4987343-3.01676-1.1274777 0-1.9807041.79228-1.9807041 1.82834 0 1.09701.822754 1.79787 2.0721212 1.79787.1218895 0 .4266132 0 .4875579-.0305h.091417c.1523619 0 .2133066.0914.2133066.27425 0 1.27984-1.0360606 2.71204-3.0777094 4.14424z" transform="translate(53.683727 19.040767)"/>
      <g id="g64" transform="matrix(-1 0 0 -1 71.437502 533.49892)">
        <path id="path56" d="m-8.1308443 262.0643c2.712041-1.85882 3.9918805-3.71763 3.9918805-5.8507 0-1.82834-1.0055882-3.01676-2.4987343-3.01676-1.1274777 0-1.9807041.79228-1.9807041 1.82834 0 1.09701.822754 1.79787 2.0721212 1.79787.1218895 0 .4266132 0 .4875579-.0305h.091417c.1523619 0 .2133066.0914.2133066.27425 0 1.27984-1.0360606 2.71204-3.0777094 4.14424z" transform="translate(48.392057 19.040767)"/>
        <path id="path60" d="m-8.1308443 262.0643c2.712041-1.85882 3.9918805-3.71763 3.9918805-5.8507 0-1.82834-1.0055882-3.01676-2.4987343-3.01676-1.1274777 0-1.9807041.79228-1.9807041 1.82834 0 1.09701.822754 1.79787 2.0721212 1.79787.1218895 0 .4266132 0 .4875579-.0305h.091417c.1523619 0 .2133066.0914.2133066.27425 0 1.27984-1.0360606 2.71204-3.0777094 4.14424z" transform="translate(53.683727 19.040767)"/>
      </g>
    </g>
  </g>
</svg>

<?xml version="1.0" encoding="UTF-8" standalone="no"?>
<svg
   xmlns:osb="http://www.openswatchbook.org/uri/2009/osb"
   xmlns:dc="http://purl.org/dc/elements/1.1/"
   xmlns:cc="http://creativecommons.org/ns#"
   xmlns:rdf="http://www.w3.org/1999/02/22-rdf-syntax-ns#"
   xmlns:svg="http://www.w3.org/2000/svg"
   xmlns="http://www.w3.org/2000/svg"
   xmlns:sodipodi="http://sodipodi.sourceforge.net/DTD/sodipodi-0.dtd"
   xmlns:inkscape="http://www.inkscape.org/namespaces/inkscape"
   width="16"
   height="16"
   version="1.1"
   id="svg15"
   sodipodi:docname="text-richtext.svg"
   inkscape:version="0.92.4 (5da689c313, 2019-01-14)">
  <metadata
     id="metadata19">
    <rdf:RDF>
      <cc:Work
         rdf:about="">
        <dc:format>image/svg+xml</dc:format>
        <dc:type
           rdf:resource="http://purl.org/dc/dcmitype/StillImage" />
        <dc:title />
      </cc:Work>
    </rdf:RDF>
  </metadata>
  <sodipodi:namedview
     pagecolor="#ffffff"
     bordercolor="#666666"
     borderopacity="1"
     objecttolerance="10"
     gridtolerance="10"
     guidetolerance="10"
     inkscape:pageopacity="0"
     inkscape:pageshadow="2"
     inkscape:window-width="1468"
     inkscape:window-height="1009"
     id="namedview17"
     showgrid="false"
     inkscape:zoom="30.41459"
     inkscape:cx="0.059322033"
     inkscape:cy="8.1286101"
     inkscape:window-x="0"
     inkscape:window-y="27"
     inkscape:window-maximized="0"
     inkscape:current-layer="g906" />
  <defs
     id="defs9">
    <linearGradient
       id="linearGradient5606"
       osb:paint="solid">
      <stop
         id="stop5608"
         offset="0"
         style="stop-color:#000000" />
    </linearGradient>
    <linearGradient
       id="linearGradient4526"
       osb:paint="solid">
      <stop
         id="stop4528"
         offset="0"
         style="stop-color:#ffffff" />
    </linearGradient>
    <linearGradient
       id="linearGradient3600-4"
       osb:paint="gradient">
      <stop
         id="stop3602-7"
         offset="0"
         style="stop-color:#f4f4f4" />
      <stop
         id="stop3604-6"
         offset="1"
         style="stop-color:#dbdbdb" />
    </linearGradient>
    <linearGradient
       gradientUnits="userSpaceOnUse"
       gradientTransform="matrix(0,-0.11988932,0.11988589,0,0.36277965,292.5483)"
       y2="119.093"
       y1="401.58401"
       x2="-35.310001"
       x1="529.65503"
       id="linearGradient4226">
      <stop
         id="stop2"
         offset="0"
         style="stop-color:#f2f2f2" />
      <stop
         id="stop4"
         offset="1"
         style="stop-color:#f9f9f9" />
    </linearGradient>
    <linearGradient
       gradientUnits="userSpaceOnUse"
       y2="488"
       y1="88"
       x2="488"
       x1="88"
       id="linearGradient4358">
      <stop
         id="stop7"
         offset="0"
         style="stop-color:#000000;stop-opacity:.58823532" />
      <stop
         id="stop9"
         offset=".88"
         style="stop-color:#000000;stop-opacity:0" />
      <stop
         id="stop11"
         offset="1"
         style="stop-color:#000000" />
    </linearGradient>
    <filter
       style="color-interpolation-filters:sRGB"
       y="-0.0099999998"
       x="-0.0099999998"
       height="1.022"
       width="1.026"
       id="filter4346">
      <feGaussianBlur
         id="feGaussianBlur14"
         stdDeviation="2.12" />
    </filter>
    <linearGradient
       gradientUnits="userSpaceOnUse"
       gradientTransform="matrix(0,-0.11988932,0.11988589,0,0.3628473,63.28165)"
       y2="119.093"
       y1="401.58401"
       x2="-35.310001"
       x1="529.65503"
       id="linearGradient4226-3">
      <stop
         id="stop2-6"
         offset="0"
         style="stop-color:#f2f2f2" />
      <stop
         id="stop4-7"
         offset="1"
         style="stop-color:#f9f9f9" />
    </linearGradient>
    <clipPath
       id="clipPath983"
       clipPathUnits="userSpaceOnUse">
      <path
         style="color:#000000;display:inline;overflow:visible;visibility:visible;opacity:1;fill:#46a926;fill-opacity:1;fill-rule:nonzero;stroke:none;stroke-width:2;stroke-miterlimit:4;stroke-dasharray:none;stroke-opacity:1;marker:none;enable-background:accumulate"
         d="m 325.09646,237 c -2.80769,0 -3.10979,0.28839 -3.09603,3.10176 V 244 v 3.89824 c -0.0138,2.81337 0.28834,3.10176 3.09603,3.10176 h 5.8075 C 333.71166,251 334,250.71165 334,247.89824 V 244 240.10176 C 334,237.28836 333.71165,237 330.90396,237 Z"
         id="path985"
         inkscape:connector-curvature="0"
         sodipodi:nodetypes="scccssscsss" />
    </clipPath>
    <clipPath
       id="clipPath983-3"
       clipPathUnits="userSpaceOnUse">
      <path
         style="color:#000000;display:inline;overflow:visible;visibility:visible;opacity:1;fill:#46a926;fill-opacity:1;fill-rule:nonzero;stroke:none;stroke-width:2;stroke-miterlimit:4;stroke-dasharray:none;stroke-opacity:1;marker:none;enable-background:accumulate"
         d="m 325.09646,237 c -2.80769,0 -3.10979,0.28839 -3.09603,3.10176 V 244 v 3.89824 c -0.0138,2.81337 0.28834,3.10176 3.09603,3.10176 h 5.8075 C 333.71166,251 334,250.71165 334,247.89824 V 244 240.10176 C 334,237.28836 333.71165,237 330.90396,237 Z"
         id="path985-6"
         inkscape:connector-curvature="0"
         sodipodi:nodetypes="scccssscsss" />
    </clipPath>
  </defs>
  <g
     transform="translate(-512.00004,-160)"
     id="g13">
    <path
       style="fill:#808080"
       d="M 4.9941406,0 C 3.7359406,0.0145 2.81525,-0.03060437 2.0625,0.38476562 1.68613,0.59242563 1.3892694,0.9441525 1.2246094,1.3828125 1.0599394,1.8214825 1,2.34239 1,3 v 10 c 0,0.65761 0.059899,1.178578 0.2246094,1.617188 0.16468,0.43861 0.4615306,0.788523 0.8378906,0.996093 C 2.81522,16.028421 3.7360406,15.98493 4.9941406,16 h 0.00195 5.0058592 0.0039 c 1.25819,-0.0145 2.178891,0.0306 2.931641,-0.384766 0.37637,-0.20766 0.673231,-0.559387 0.837891,-0.998046 C 13.939921,14.178517 14,13.65761 14,13 V 3 C 14,2.34239 13.940101,1.8214225 13.775391,1.3828125 13.610711,0.9442025 13.31386,0.59428875 12.9375,0.38671875 12.18478,-0.02841125 11.263949,0.01507 10.005859,0 h -0.002 -5.0058591 z M 5,1 h 5 c 1.25862,0.0152 2.089098,0.059899 2.455078,0.2617188 0.18342,0.1011599 0.287226,0.2128562 0.384766,0.4726562 C 12.937254,1.994165 13,2.40761 13,3 v 10 c 0,0.59239 -0.0626,1.005725 -0.160156,1.265625 -0.0976,0.25991 -0.201356,0.371466 -0.384766,0.472656 C 12.089118,14.940201 11.25852,14.98529 10,15 H 5.0058594 5 C 3.74137,14.9848 2.9109019,14.940101 2.5449219,14.738281 2.3615019,14.637121 2.2576962,14.525425 2.1601562,14.265625 2.0626062,14.005835 2,13.59239 2,13 V 3 C 2,2.40761 2.0625962,1.994275 2.1601562,1.734375 2.2577563,1.474465 2.363465,1.3629088 2.546875,1.2617188 2.912825,1.0598088 3.74148,1.0147 5,1 Z"
       transform="translate(512.00004,160)"
       id="path11"
       inkscape:connector-curvature="0"
       sodipodi:nodetypes="cccsscsccccccssccccccccccsscccccccssccc" />
    <g
       id="g850"
       transform="translate(499.72882,150.07621)">
      <g
         transform="translate(-713.00021,207.00006)"
         style="display:inline"
         label="status"
         id="layer9" />
      <g
         transform="translate(-472.00001,-159.99994)"
         style="display:inline"
         id="layer2" />
      <g
         transform="translate(-472.00001,-159.99994)"
         style="display:inline"
         id="layer4" />
      <g
         transform="translate(-472.00001,-159.99994)"
         style="display:inline"
         id="g1812" />
      <g
         transform="translate(-472.00001,-159.99994)"
         style="display:inline"
         id="g6217" />
      <g
         transform="translate(-472.00001,-159.99994)"
         style="display:inline"
         id="layer3" />
      <g
         transform="translate(-485.49154,-151.79655)"
         style="display:inline"
         id="g1833">
        <g
           id="g906"
           transform="matrix(3.7797136,0,0,3.7797136,475.3218,159.68644)">
          <g
             style="color:#bebebe;display:inline;fill:#999999;stroke-width:2.5999999;enable-background:new"
             transform="matrix(0.10175781,0,0,0.10175781,-62.312496,-52.820903)"
             id="g3753" />
          <g
             transform="matrix(0.09567846,0,0,0.09567846,4.503974,-22.867168)"
             id="g66"
             style="fill:#808080;fill-opacity:1">
            <path
               d="m 35.806999,252.33164 v 1.05833 h 12.7 v -1.05833 z m 0,3.175 v 1.05833 h 12.7 v -1.05833 z m 0,3.175 v 1.05833 h 12.7 v -1.05833 z m 0,3.175 v 1.05833 h 12.7 v -1.05833 z m 0,3.175 v 1.05833 h 12.7 v -1.05833 z"
               style="fill:#808080;fill-opacity:1"
               id="path44"
               inkscape:connector-curvature="0" />
            <path
               d="m 22.489583,267.36665 v 1.05833 h 12.7 v -1.05833 z m 0,3.175 v 1.05833 h 12.7 v -1.05833 z m 0,3.175 v 1.05833 h 12.7 v -1.05833 z m 0,3.175 v 1.05833 h 12.7 v -1.05833 z m 0,3.175 v 1.05833 h 12.7 v -1.05833 z"
               style="fill:#808080;fill-opacity:1"
               id="path46"
               inkscape:connector-curvature="0" />
            <g
               transform="translate(48.392057,19.040767)"
               style="fill:#808080;fill-opacity:1"
               id="g50">
              <path
                 d="m -8.1308443,262.0643 c 2.712041,-1.85882 3.9918805,-3.71763 3.9918805,-5.8507 0,-1.82834 -1.0055882,-3.01676 -2.4987343,-3.01676 -1.1274777,0 -1.9807041,0.79228 -1.9807041,1.82834 0,1.09701 0.822754,1.79787 2.0721212,1.79787 0.1218895,0 0.4266132,0 0.4875579,-0.0305 h 0.091417 c 0.1523619,0 0.2133066,0.0914 0.2133066,0.27425 0,1.27984 -1.0360606,2.71204 -3.0777094,4.14424 z"
                 style="fill:#808080;fill-opacity:1"
                 id="path48"
                 inkscape:connector-curvature="0" />
            </g>
            <g
               transform="translate(53.683727,19.040767)"
               style="fill:#808080;fill-opacity:1"
               id="g54">
              <path
                 d="m -8.1308443,262.0643 c 2.712041,-1.85882 3.9918805,-3.71763 3.9918805,-5.8507 0,-1.82834 -1.0055882,-3.01676 -2.4987343,-3.01676 -1.1274777,0 -1.9807041,0.79228 -1.9807041,1.82834 0,1.09701 0.822754,1.79787 2.0721212,1.79787 0.1218895,0 0.4266132,0 0.4875579,-0.0305 h 0.091417 c 0.1523619,0 0.2133066,0.0914 0.2133066,0.27425 0,1.27984 -1.0360606,2.71204 -3.0777094,4.14424 z"
                 style="fill:#808080;fill-opacity:1"
                 id="path52"
                 inkscape:connector-curvature="0" />
            </g>
            <g
               transform="rotate(180,35.718751,266.74946)"
               id="g64"
               style="fill:#808080;fill-opacity:1">
              <g
                 transform="translate(48.392057,19.040767)"
                 style="fill:#808080;fill-opacity:1"
                 id="g58">
                <path
                   d="m -8.1308443,262.0643 c 2.712041,-1.85882 3.9918805,-3.71763 3.9918805,-5.8507 0,-1.82834 -1.0055882,-3.01676 -2.4987343,-3.01676 -1.1274777,0 -1.9807041,0.79228 -1.9807041,1.82834 0,1.09701 0.822754,1.79787 2.0721212,1.79787 0.1218895,0 0.4266132,0 0.4875579,-0.0305 h 0.091417 c 0.1523619,0 0.2133066,0.0914 0.2133066,0.27425 0,1.27984 -1.0360606,2.71204 -3.0777094,4.14424 z"
                   style="fill:#808080;fill-opacity:1"
                   id="path56"
                   inkscape:connector-curvature="0" />
              </g>
              <g
                 transform="translate(53.683727,19.040767)"
                 style="fill:#808080;fill-opacity:1"
                 id="g62">
                <path
                   d="m -8.1308443,262.0643 c 2.712041,-1.85882 3.9918805,-3.71763 3.9918805,-5.8507 0,-1.82834 -1.0055882,-3.01676 -2.4987343,-3.01676 -1.1274777,0 -1.9807041,0.79228 -1.9807041,1.82834 0,1.09701 0.822754,1.79787 2.0721212,1.79787 0.1218895,0 0.4266132,0 0.4875579,-0.0305 h 0.091417 c 0.1523619,0 0.2133066,0.0914 0.2133066,0.27425 0,1.27984 -1.0360606,2.71204 -3.0777094,4.14424 z"
                   style="fill:#808080;fill-opacity:1"
                   id="path60"
                   inkscape:connector-curvature="0" />
              </g>
            </g>
          </g>
        </g>
      </g>
      <g
         transform="translate(-472.00001,-159.99994)"
         style="display:inline"
         id="layer1" />
    </g>
  </g>
</svg>
